X: 71
T:I've Lost My Love And I Care Not. JB.70
M:6/8
L:1/8
Q:80
S:James Biggins MS, Leeds, 1779.
R:Air
O:England
A:Yorkshire
Z:
Z:vmp.Nick Barber & Chris Partingto
K:G
e|c2A cde|d2BG2B|c2A cde|g3e2:|!
|:a|g2e cde|d2BG2B|g2ec2e|g3e2a|!
g2e cde|d2BG2B|c2A cde|g3e2:|]
W:VersionThis one Vickers.
